X: 1352
T: Come Lasses and Lads
B: australian traditional tunes wiki
M:6/8
L:1/8
R: Jig
Q: 3/8=100
K:G
V:1 
G|"G"G>AGg2g|"C"a>gfe2e|"G"d>edd2B|d3-d2c|"Em"B2e e>^de|B2ee2f|g>fe "B7"f2^d|"Em"e3-e2d|
"G"d>edg2f|"C"e3-e2e|"A"e>fe "A7"a2g|"D"f3-fga|"G"b2g "D"a2f|"G"g>fed2B|"C"c>de "D7"d2f|"G"g3-g2:|
% abcbook-tune_id 6342d53abbb563387802ad2e


% abcbook-boost 0
% abcbook-tablature 
% abcbook-transpose 
% abcbook-lastupdated 1665324360638
% abcbook-soundfonts 
% abcbook-repeats 1
% NFF Book 2017

